dist/img/footer/icon-2.svg

<svg width="24" height="20" viewBox="0 0 24 20" fill="none" xmlns="http://www.w3.org/2000/svg">
<path d="M23.2584 0.537761C22.9749 0.190944 22.5501 0 22.0623 0C21.7971 0 21.5162 0.0557953 21.2275 0.166146L1.57514 7.66805C0.53221 8.06605 0.391748 8.66333 0.400781 8.98393C0.409815 9.30453 0.583932 9.89295 1.64776 10.2314C1.65414 10.2334 1.66052 10.2353 1.66689 10.2371L5.74332 11.4037L7.94785 17.7077C8.24844 18.5671 8.92312 19.101 9.70886 19.101C10.2043 19.101 10.6916 18.8934 11.1181 18.5008L13.6395 16.1792L17.2967 19.124C17.297 19.1243 17.2976 19.1245 17.2979 19.1249L17.3326 19.1528C17.3358 19.1553 17.3392 19.158 17.3424 19.1605C17.7489 19.4758 18.1926 19.6423 18.626 19.6424H18.6262C19.473 19.6424 20.1474 19.0156 20.3438 18.0456L23.5638 2.14591C23.6931 1.50771 23.5847 0.936653 23.2584 0.537761ZM7.10702 11.1821L14.9717 7.1643L10.0746 12.3678C9.99439 12.453 9.93753 12.5573 9.90954 12.6708L8.96527 16.4958L7.10702 11.1821ZM10.1965 17.5001C10.1639 17.53 10.1311 17.5567 10.0984 17.5814L10.9744 14.0331L12.5681 15.3164L10.1965 17.5001ZM22.2306 1.87579L19.0106 17.7757C18.9796 17.9278 18.8805 18.2819 18.626 18.2819C18.5002 18.2819 18.3423 18.2134 18.1805 18.0888L14.0364 14.7521C14.0359 14.7516 14.0352 14.751 14.0345 14.7507L11.5687 12.7651L18.6505 5.24015C18.8772 4.99926 18.8977 4.6303 18.6992 4.36567C18.5004 4.10104 18.1403 4.01779 17.8458 4.16835L6.19818 10.1188L2.06632 8.93664L21.7126 1.43704C21.8786 1.37363 21.9945 1.36034 22.0623 1.36034C22.1039 1.36034 22.178 1.3653 22.2054 1.39913C22.2415 1.44324 22.2876 1.59362 22.2306 1.87579Z" fill="white"/>
</svg>

<svg width="24" height="20" fill="none" xmlns="http://www.w3.org/2000/svg"><path d="M23.258.538C22.975.19 22.55 0 22.062 0c-.265 0-.546.056-.835.166L1.575 7.668C.532 8.066.392 8.663.401 8.984c.009.32.183.909 1.247 1.247a.703.703 0 00.019.006l4.076 1.167 2.205 6.304c.3.86.975 1.393 1.76 1.393.496 0 .984-.208 1.41-.6l2.521-2.322 3.658 2.945.036.029.01.008c.406.315.85.481 1.283.481.847 0 1.521-.626 1.718-1.596l3.22-15.9c.13-.638.02-1.21-.306-1.608zM7.107 11.182l7.865-4.018-4.897 5.204a.68.68 0 00-.165.303l-.945 3.825-1.858-5.314zm3.09 6.318a1.33 1.33 0 01-.099.081l.876-3.548 1.594 1.283-2.371 2.184zM22.23 1.876l-3.22 15.9c-.031.152-.13.506-.385.506-.126 0-.284-.069-.446-.193l-4.144-3.337-.002-.001-2.465-1.986L18.65 5.24a.68.68 0 00-.805-1.072l-11.648 5.95-4.132-1.181 19.647-7.5a.998.998 0 01.35-.077c.04 0 .115.005.142.04.037.043.083.194.026.476z" fill="#fff"/></svg>
